X: 2394
M: C
L: 1/8
K: Bb
(ud>c) |\
|: u(cB) |\
dfBf dfBf | dBdf bfdf |\
=egcg egce | =eceg bgeg |\
f=efa gbeg |[1 f2f2f2 :|2 f=eag fe_ec |]


